!! 00000] TT[00
!! NN
!!!OTL: Qiannian bulan ji xinjian
!!!ARE: Asia, China,ˇGuangxi, Fusui
!! Ethnic Group: Han
!! II, 542
!!!SCT: C0812
!!!YEM: Copyright 1995, estate of Helmut Schaffrath.
**kern
*ICvox
*Ivox
!! Mixed meters:  2/4; 3/4
*M3/4
*k[b-e-]
*B-:
{8ddd
8ccc
8ddd
8ccc
8bb-
8ccc
=1
*M2/4
8ddd
4ccc
16ddd
16fff
=2
*M3/4
8bb-
16ccc
16bb-
4bb-
4r}
=3
{8gg
8aa
4.ff
16gg
16bb-
=4
*M2/4
8ccc
16ccc
16bb-
8gg
8aa
=5
*M3/4
8gg
[8ff
2ff]}
=6
{8bb-
8ddd
16ccc
16ddd
8bb-
8bb-
8bb-
=7
*M2/4
16ccc
16ddd
4ccc
16ddd
16fff
=8
*M3/4
8bb-
16ccc
16bb-
4bb-
4r}
=9
{8gg
8aa
4.ff
16gg
16bb-
=10
*M2/4
8ccc
16ccc
16bb-
8gg
8aa
=11
8gg
[8ff
2ff]}
==
!!!AGN: Shange, Xiashuisheng. NannÅ siqing
!! Text schon in der Ching-Dynastie bekannt.
!!    Vereinzelt Verzierungen und Glissandi.
!!!ONB: ESAC (Essen Associative Code) Database: CHINA
!!!AMT: irregular
!!!AIN: vox
!!!EED: Helmut Schaffrath
!!!EEV: 1.0
*-
